icon-themes/sifr_svg/cmd/lc_patternfield.svg

<svg viewBox="0 0 24 24" xmlns="http://www.w3.org/2000/svg"><path d="m13 4v15h2 4c2.209138 0 4-1.79086 4-4s-1.790862-4-4-4h-4v-7zm-10 5v2h6v2h-5c-1.656854 0-3 1.343146-3 3s1.343146 3 3 3h7v-8c0-1.10457-.89543-2-2-2zm12 4h4c1.10457 0 2 .89543 2 2s-.89543 2-2 2h-4zm-11 2h5v2h-5c-.552284 0-1-.447716-1-1s.447716-1 1-1z" fill="#555753"/></svg>

<svg xmlns="http://www.w3.org/2000/svg" viewBox="0 0 24 24">
  <path
     style="fill:#555753"
     d="m 13,4 v 15 h 2 4 c 2.209138,0 4,-1.79086 4,-4 0,-2.20914 -1.790862,-4 -4,-4 H 15 V 4 Z M 3,9 v 2 h 6 v 2 H 4 c -1.656854,0 -3,1.343146 -3,3 0,1.656854 1.343146,3 3,3 h 7 V 11 C 11,9.89543 10.10457,9 9,9 Z m 12,4 h 4 c 1.10457,0 2,0.89543 2,2 0,1.10457 -0.89543,2 -2,2 H 15 Z M 4,15 h 5 v 2 H 4 C 3.447716,17 3,16.552284 3,16 3,15.447716 3.447716,15 4,15 Z"
     />
</svg>
